source/img/icons/icon-tw.svg

<svg width="30" height="30" viewBox="0 0 30 30" fill="none" xmlns="http://www.w3.org/2000/svg">
<circle cx="15" cy="15" r="15" fill="white"/>
<path d="M21.9961 11.4915C22.6854 10.9745 23.3058 10.3541 23.7884 9.63028C23.168 9.90602 22.4442 10.1128 21.7204 10.1818C22.4786 9.73369 23.0301 9.04435 23.3058 8.18267C22.6165 8.59628 21.8238 8.90648 21.031 9.07881C20.3417 8.35501 19.4111 7.94141 18.3771 7.94141C16.378 7.94141 14.758 9.56135 14.758 11.5604C14.758 11.8362 14.7925 12.1119 14.8614 12.3876C11.8628 12.2153 9.1744 10.7677 7.38212 8.59628C7.07192 9.11328 6.89959 9.73369 6.89959 10.423C6.89959 11.6638 7.51999 12.7668 8.51953 13.4216C7.93359 13.3872 7.34766 13.2493 6.86512 12.9736V13.008C6.86512 14.7659 8.10593 16.2135 9.76034 16.5581C9.48461 16.6271 9.13994 16.696 8.82973 16.696C8.58847 16.696 8.38166 16.6615 8.1404 16.6271C8.58847 18.0747 9.93267 19.1087 11.5182 19.1432C10.2773 20.1082 8.72633 20.6942 7.03745 20.6942C6.72725 20.6942 6.45152 20.6597 6.17578 20.6252C7.76126 21.6592 9.65694 22.2452 11.725 22.2452C18.3771 22.2452 21.9961 16.7649 21.9961 11.974C21.9961 11.8017 21.9961 11.6638 21.9961 11.4915Z" fill="black"/>
</svg>

<svg width="30" height="30" fill="none" xmlns="http://www.w3.org/2000/svg"><circle cx="15" cy="15" r="15" fill="#fff"/><path d="M21.996 11.492a7.667 7.667 0 0 0 1.792-1.862 6.785 6.785 0 0 1-2.068.552 3.536 3.536 0 0 0 1.586-2 7.642 7.642 0 0 1-2.275.897 3.62 3.62 0 0 0-2.654-1.138 3.619 3.619 0 0 0-3.619 3.62c0 .275.035.55.103.827a10.5 10.5 0 0 1-7.479-3.792 3.52 3.52 0 0 0-.482 1.827c0 1.24.62 2.344 1.62 2.999-.586-.035-1.172-.173-1.655-.448v.034a3.623 3.623 0 0 0 2.895 3.55c-.275.07-.62.138-.93.138-.242 0-.448-.035-.69-.069a3.602 3.602 0 0 0 3.378 2.516 7.277 7.277 0 0 1-4.48 1.551c-.31 0-.586-.034-.862-.069 1.585 1.034 3.48 1.62 5.549 1.62 6.652 0 10.271-5.48 10.271-10.271v-.482Z" fill="#000"/></svg>
